app/assets/images/social-twitter.svg

<?xml version="1.0" encoding="UTF-8" standalone="no"?>
<svg width="26px" height="26px" viewBox="0 0 26 26" version="1.1" xmlns="http://www.w3.org/2000/svg" xmlns:xlink="http://www.w3.org/1999/xlink" xmlns:sketch="http://www.bohemiancoding.com/sketch/ns">
    <!-- Generator: Sketch 3.3.3 (12072) - http://www.bohemiancoding.com/sketch -->
    <title>social-twitter</title>
    <desc>Created with Sketch.</desc>
    <defs></defs>
    <g id="Footers" stroke="none" stroke-width="1" fill="none" fill-rule="evenodd" sketch:type="MSPage">
        <g id="Style-Guide-Footers" sketch:type="MSArtboardGroup" transform="translate(-1084.000000, -1312.000000)">
            <g id="Item-Limits" sketch:type="MSLayerGroup" transform="translate(134.000000, 874.000000)">
                <g id="3" transform="translate(1.000000, 395.000000)" sketch:type="MSShapeGroup">
                    <g id="social-icons" transform="translate(916.000000, 44.000000)">
                        <g id="social-twitter" transform="translate(34.000000, 0.000000)">
                            <circle id="Oval-3" stroke="#3E53A4" stroke-width="2" cx="12" cy="12" r="12"></circle>
                            <path d="M17.701084,9.07686215 C17.6299576,8.99778086 17.5153132,8.97859546 17.4212579,9.02538912 C17.3627658,9.05346532 17.2523328,9.09604755 17.1217785,9.13301454 C17.2864922,8.91308434 17.4193862,8.66975732 17.4783462,8.44982712 C17.5026789,8.35670774 17.4661798,8.25329376 17.3856947,8.19714137 C17.3052096,8.14145691 17.1980522,8.14145691 17.1175671,8.19714137 C16.9912242,8.28651725 16.3786952,8.55324111 15.9917116,8.63746969 C15.1218175,7.87426512 14.0909532,7.7947159 13.0409035,8.40771283 C12.1808361,8.91308434 11.9936615,9.93318609 12.0306285,10.5555418 C10.0624872,10.3641557 8.83883301,9.32486853 8.14956242,8.46386522 C8.10089702,8.40771283 8.02181573,8.37495727 7.95022144,8.37963663 C7.87347984,8.38478394 7.8051611,8.42689823 7.76585442,8.49240935 C7.43923469,9.04410658 7.34939086,9.65242414 7.50521375,10.251383 C7.5903782,10.5789386 7.73964997,10.8690593 7.91185064,11.1034955 C7.82855793,11.0609133 7.74947664,11.0099082 7.67413885,10.9490764 C7.6044163,10.8924561 7.50802137,10.8788859 7.42566453,10.9205323 C7.34424356,10.9579672 7.2923026,11.0379844 7.2923026,11.1311038 C7.2923026,12.2026785 7.96659922,12.862937 8.55713519,13.2092101 C8.45184946,13.1998514 8.34469198,13.1759866 8.23800244,13.143699 C8.15003036,13.1156228 8.05503923,13.1385517 7.99420748,13.2092101 C7.93337572,13.2794006 7.91886969,13.3729879 7.95677255,13.4567486 C8.2950907,14.2054471 8.93616382,14.715498 9.72978427,14.8984612 C9.04425717,15.305566 8.13037702,15.4969521 7.26095085,15.394006 C7.15004988,15.3804359 7.04570002,15.4220822 7.01154065,15.5301756 C6.97691334,15.6326537 7.02230319,15.6986328 7.119634,15.7496378 C8.27262974,16.4005376 9.43825978,16.6199999 10.5842365,16.6199999 L10.5851723,16.6199999 C12.3024996,16.6199999 13.9103297,15.9887534 15.1105871,14.6406281 C16.2369104,13.3818787 16.8283823,11.8798023 16.7090584,10.4198401 C17.0061982,10.2003779 17.4512058,9.79280512 17.7263526,9.3576241 C17.7825049,9.26871614 17.7722103,9.151732 17.701084,9.07686215" id="Fill-7305" fill="#3E53A4"></path>
                        </g>
                    </g>
                </g>
            </g>
        </g>
    </g>
</svg>

<svg width="26" height="26" viewBox="0 0 26 26" xmlns="http://www.w3.org/2000/svg" xmlns:sketch="http://www.bohemiancoding.com/sketch/ns"><title>social-twitter</title><desc>Created with Sketch.</desc><g transform="translate(1 1)" sketch:type="MSShapeGroup" fill="none"><circle stroke="#3E53A4" stroke-width="2" cx="12" cy="12" r="12"/><path d="M17.701 9.077c-.071-.079-.186-.098-.28-.051l-.299.108c.165-.22.298-.463.357-.683.024-.093-.012-.197-.093-.253-.08-.056-.188-.056-.268 0-.126.089-.739.356-1.126.44-.87-.763-1.901-.843-2.951-.23-.86.505-1.047 1.525-1.01 2.148-1.968-.191-3.192-1.231-3.881-2.092-.049-.056-.128-.089-.199-.084-.077.005-.145.047-.184.113-.327.552-.416 1.16-.261 1.759.085.328.234.618.407.852l-.238-.154c-.07-.057-.166-.07-.248-.029-.081.037-.133.117-.133.211 0 1.072.674 1.732 1.265 2.078-.105-.009-.212-.033-.319-.066-.088-.028-.183-.005-.244.066-.061.07-.075.164-.037.248.338.749.979 1.259 1.773 1.442-.686.407-1.599.598-2.469.496-.111-.014-.215.028-.249.136-.035.102.011.168.108.219 1.153.651 2.319.87 3.465.87h.001c1.717 0 3.325-.631 4.525-1.979 1.126-1.259 1.718-2.761 1.598-4.221.297-.219.742-.627 1.017-1.062.056-.089.046-.206-.025-.281" fill="#3E53A4"/></g></svg>
